IMB-X-Files/The-Ambassadors-Assets/660c0a31617757b1c6c51dca_techcrunch 1.svg

<svg fill="none" height="35" viewBox="0 0 242 35" width="242" xmlns="http://www.w3.org/2000/svg" xmlns:xlink="http://www.w3.org/1999/xlink"><clipPath id="a"><path d="m.376984.880371h240.757v33.4743h-240.757z"/></clipPath><g clip-path="url(#a)" fill="#fff"><path d="m90.8749 13.9588v14.8164h-5.4895v-14.8164h-5.5461v-4.71515h16.5833v4.71515h-5.5461z"/><path d="m109.237 22.8902h-8.716c.17 1.6176 1.131 2.3429 2.519 2.3429 1.302 0 2.378-.28 3.849-1.0331l1.953 3.2089c-1.838 1.0593-3.736 1.6732-6.054 1.6732-4.472 0-6.9345-3.1253-6.9345-7.6177 0-5.0492 2.886-7.6441 6.7915-7.6441 3.905 0 6.622 2.6506 6.622 8.091 0 .4191 0 .7253-.028.9773zm-6.735-5.3584c-1.16 0-1.811.7809-1.981 2.2315h4.246c-.256-1.4784-.765-2.2315-2.265-2.2315z"/><path d="m118.713 29.0821c-4.357 0-6.961-2.7341-6.961-7.6719 0-4.4924 2.321-7.5899 7.074-7.5899 2.801 0 4.415 1.2836 5.717 3.3481l-3.509 2.6227c-.707-1.2835-1.189-1.8975-2.291-1.8975-1.304 0-1.953 1.2836-1.953 3.5986s.707 3.5151 2.094 3.5151c.961 0 1.64-.5305 2.575-1.8975l3.227 2.4836c-1.726 2.5114-3.34 3.4887-5.972 3.4887z"/><path d="m136.086 28.7744v-8.3152c0-1.8975-.651-2.3985-1.697-2.3985-1.047 0-1.727.5026-1.727 2.3428v8.3709h-5.093v-18.3315l5.093-2.00882v6.66822c.933-.6974 1.981-1.2835 3.736-1.2835 3.254 0 4.812 2.148 4.812 5.9986v8.957h-5.123z"/><path d="m153.402 29.081c-5.886 0-9.028-4.2976-9.028-10.072 0-6.277 3.736-10.07199 9.056-10.07199 4.869 0 6.793 2.06449 8.151 5.74809l-4.979 1.9254c-.709-1.814-1.387-2.9584-3.199-2.9584-2.291 0-3.282 2.2594-3.282 5.3569s.961 5.3569 3.339 5.3569c1.725 0 2.462-.9202 3.537-2.762l4.641 2.4279c-1.33 2.5671-3.539 5.0507-8.235 5.0507z"/><path d="m174.166 19.6484c-.65-.6975-1.384-1.2279-2.376-1.2279-1.245 0-2.01.5861-2.01 2.3707v7.9796h-5.093v-14.6494h5.093v1.0608c.876-.8366 1.868-1.367 3.169-1.367 1.075 0 1.812.2505 2.405.6139l-1.189 5.2177z"/><path d="m186.275 28.7748v-.9773c-.907.6974-1.981 1.2851-3.707 1.2851-3.254 0-4.812-2.148-4.812-6.0002v-8.9554h5.123v8.3152c0 1.8959.651 2.3985 1.697 2.3985s1.697-.5026 1.697-2.3444v-8.3693h5.123v14.6494h-5.123z"/><path d="m203.59 28.7759v-8.3152c0-1.8975-.651-2.3985-1.697-2.3985s-1.727.5026-1.727 2.3429v8.3708h-5.093v-14.6494h5.093v.9774c.933-.6975 1.981-1.2836 3.736-1.2836 3.254 0 4.812 2.148 4.812 5.9987v8.9569h-5.123z"/><path d="m218.639 29.0821c-4.357 0-6.961-2.7341-6.961-7.6719 0-4.4924 2.322-7.5899 7.074-7.5899 2.801 0 4.415 1.2836 5.717 3.3481l-3.509 2.6227c-.707-1.2835-1.188-1.8975-2.291-1.8975-1.304 0-1.953 1.2836-1.953 3.5986s.708 3.5151 2.094 3.5151c.962 0 1.641-.5305 2.575-1.8975l3.227 2.4836c-1.726 2.5114-3.339 3.4887-5.971 3.4887z"/><path d="m236.011 28.7744v-8.3152c0-1.8975-.65-2.3985-1.697-2.3985-1.046 0-1.726.5026-1.726 2.3428v8.3709h-5.093v-18.3315l5.093-2.00882v6.66822c.933-.6974 1.981-1.2835 3.736-1.2835 3.254 0 4.812 2.148 4.812 5.9986v8.957h-5.123z"/><path d="m.376984.880371v11.157529h11.316416v22.3167h11.3179v-22.3167h11.3164v-11.157529z"/><path d="m45.6441 23.1992v-11.1592h-11.3164v22.3167h33.9507v-11.1575z"/><path d="m68.2778.880127h-22.6344v11.157573h22.6344z"/></g></svg>

<svg width="242" height="35" viewBox="0 0 242 35" fill="none" xmlns="http://www.w3.org/2000/svg">
    <g id="techcrunch 1" clip-path="url(#clip0_2534_13333)">
        <g id="Layer_1-2">
            <g id="Group">
                <g id="Group_2">
                    <path id="Vector"
                        d="M90.8749 13.9588V28.7752H85.3854V13.9588H79.8393V9.24365H96.4226V13.9588H90.8765H90.8749Z"
                        fill="white" />
                    <path id="Vector_2"
                        d="M109.237 22.8902H100.521C100.691 24.5078 101.652 25.2331 103.04 25.2331C104.342 25.2331 105.418 24.9531 106.889 24.2L108.842 27.4089C107.004 28.4682 105.106 29.0821 102.788 29.0821C98.316 29.0821 95.8535 25.9568 95.8535 21.4644C95.8535 16.4152 98.7395 13.8203 102.645 13.8203C106.55 13.8203 109.267 16.4709 109.267 21.9113C109.267 22.3304 109.267 22.6366 109.239 22.8886L109.237 22.8902ZM102.502 17.5318C101.342 17.5318 100.691 18.3127 100.521 19.7633H104.767C104.511 18.2849 104.002 17.5318 102.502 17.5318Z"
                        fill="white" />
                    <path id="Vector_3"
                        d="M118.713 29.0821C114.356 29.0821 111.752 26.348 111.752 21.4102C111.752 16.9178 114.073 13.8203 118.826 13.8203C121.627 13.8203 123.241 15.1039 124.543 17.1684L121.034 19.7911C120.327 18.5076 119.845 17.8936 118.743 17.8936C117.439 17.8936 116.79 19.1772 116.79 21.4922C116.79 23.8072 117.497 25.0073 118.884 25.0073C119.845 25.0073 120.524 24.4768 121.459 23.1098L124.686 25.5934C122.96 28.1048 121.346 29.0821 118.714 29.0821H118.713Z"
                        fill="white" />
                    <path id="Vector_4"
                        d="M136.086 28.7744V20.4592C136.086 18.5617 135.435 18.0607 134.389 18.0607C133.342 18.0607 132.662 18.5633 132.662 20.4035V28.7744H127.569V10.4429L132.662 8.43408V15.1023C133.595 14.4049 134.643 13.8188 136.398 13.8188C139.652 13.8188 141.21 15.9668 141.21 19.8174V28.7744H136.087H136.086Z"
                        fill="white" />
                    <path id="Vector_5"
                        d="M153.402 29.081C147.516 29.081 144.374 24.7834 144.374 19.009C144.374 12.732 148.11 8.93701 153.43 8.93701C158.299 8.93701 160.223 11.0015 161.581 14.6851L156.602 16.6105C155.893 14.7965 155.215 13.6521 153.403 13.6521C151.112 13.6521 150.121 15.9115 150.121 19.009C150.121 22.1065 151.082 24.3659 153.46 24.3659C155.185 24.3659 155.922 23.4457 156.997 21.6039L161.638 24.0318C160.308 26.5989 158.099 29.0825 153.403 29.0825L153.402 29.081Z"
                        fill="white" />
                    <path id="Vector_6"
                        d="M174.166 19.6484C173.516 18.9509 172.782 18.4205 171.79 18.4205C170.545 18.4205 169.78 19.0066 169.78 20.7912V28.7708H164.687V14.1214H169.78V15.1822C170.656 14.3456 171.648 13.8152 172.949 13.8152C174.024 13.8152 174.761 14.0657 175.354 14.4291L174.165 19.6468L174.166 19.6484Z"
                        fill="white" />
                    <path id="Vector_7"
                        d="M186.275 28.7748V27.7975C185.368 28.4949 184.294 29.0826 182.568 29.0826C179.314 29.0826 177.756 26.9346 177.756 23.0824V14.127H182.879V22.4422C182.879 24.3381 183.53 24.8407 184.576 24.8407C185.622 24.8407 186.273 24.3381 186.273 22.4963V14.127H191.396V28.7764H186.273L186.275 28.7748Z"
                        fill="white" />
                    <path id="Vector_8"
                        d="M203.59 28.7759V20.4607C203.59 18.5632 202.939 18.0622 201.893 18.0622C200.847 18.0622 200.166 18.5648 200.166 20.4051V28.7759H195.073V14.1265H200.166V15.1039C201.099 14.4064 202.147 13.8203 203.902 13.8203C207.156 13.8203 208.714 15.9683 208.714 19.819V28.7759H203.591H203.59Z"
                        fill="white" />
                    <path id="Vector_9"
                        d="M218.639 29.0821C214.282 29.0821 211.678 26.348 211.678 21.4102C211.678 16.9178 214 13.8203 218.752 13.8203C221.553 13.8203 223.167 15.1039 224.469 17.1684L220.96 19.7911C220.253 18.5076 219.772 17.8936 218.669 17.8936C217.365 17.8936 216.716 19.1772 216.716 21.4922C216.716 23.8072 217.424 25.0073 218.81 25.0073C219.772 25.0073 220.451 24.4768 221.385 23.1098L224.612 25.5934C222.886 28.1048 221.273 29.0821 218.641 29.0821H218.639Z"
                        fill="white" />
                    <path id="Vector_10"
                        d="M236.011 28.7744V20.4592C236.011 18.5617 235.361 18.0607 234.314 18.0607C233.268 18.0607 232.588 18.5633 232.588 20.4035V28.7744H227.495V10.4429L232.588 8.43408V15.1023C233.521 14.4049 234.569 13.8188 236.324 13.8188C239.578 13.8188 241.136 15.9668 241.136 19.8174V28.7744H236.013H236.011Z"
                        fill="white" />
                </g>
                <g id="Group_3">
                    <path id="Vector_11"
                        d="M0.376984 0.880371V12.0379H11.6934V34.3546H23.0113V12.0379H34.3277V0.880371H0.376984Z"
                        fill="white" />
                    <path id="Vector_12" d="M45.6441 23.1992V12.04H34.3277V34.3567H68.2784V23.1992H45.6441Z"
                        fill="white" />
                    <path id="Vector_13" d="M68.2778 0.880127H45.6434V12.0377H68.2778V0.880127Z" fill="white" />
                </g>
            </g>
        </g>
    </g>
    <defs>
        <clipPath id="clip0_2534_13333">
            <rect width="240.757" height="33.4743" fill="white" transform="translate(0.376984 0.880371)" />
        </clipPath>
    </defs>
</svg>
